svg/material-icons/soup_kitchen/materialiconssharp/24px.svg

<svg xmlns="http://www.w3.org/2000/svg" width="24" height="24" viewBox="0 0 24 24"><path d="M6.4 7c-.34.55-.4.97-.4 1.38C6 9.15 7 11 7 12c0 .95-.4 1.5-.4 1.5H5.1s.4-.55.4-1.5c0-1-1-2.85-1-3.62 0-.41.06-.83.4-1.38h1.5zm5 0c-.34.55-.4.97-.4 1.38 0 .77 1 2.62 1 3.62 0 .95-.4 1.5-.4 1.5h1.5s.4-.55.4-1.5c0-1-1-2.85-1-3.62 0-.41.06-.83.4-1.38h-1.5zM8.15 7c-.34.55-.4.97-.4 1.38 0 .77 1 2.63 1 3.62 0 .95-.4 1.5-.4 1.5h1.5s.4-.55.4-1.5c0-1-1-2.85-1-3.62 0-.41.06-.83.4-1.38h-1.5zm13.32-.5s.13-1.06.13-1.5c0-1.65-1.35-3-3-3-1.54 0-2.81 1.16-2.98 2.65L14.53 15H2.93c-.02 3.87 3.09 7 6.82 7 3.48 0 6.34-2.73 6.71-6.23L17.61 4.9c.05-.51.47-.9.99-.9.55 0 1 .45 1 1 0 .3-.1 1.25-.1 1.25l1.97.25z"/></svg>

<svg xmlns="http://www.w3.org/2000/svg" enable-background="new 0 0 24 24" height="24" viewBox="0 0 24 24" width="24"><rect fill="none" height="24" width="24"/><path d="M6.4,7C6.06,7.55,6,7.97,6,8.38C6,9.15,7,11,7,12c0,0.95-0.4,1.5-0.4,1.5H5.1c0,0,0.4-0.55,0.4-1.5c0-1-1-2.85-1-3.62 C4.5,7.97,4.56,7.55,4.9,7H6.4z M11.4,7C11.06,7.55,11,7.97,11,8.38C11,9.15,12,11,12,12c0,0.95-0.4,1.5-0.4,1.5h1.5 c0,0,0.4-0.55,0.4-1.5c0-1-1-2.85-1-3.62c0-0.41,0.06-0.83,0.4-1.38H11.4z M8.15,7c-0.34,0.55-0.4,0.97-0.4,1.38 c0,0.77,1,2.63,1,3.62c0,0.95-0.4,1.5-0.4,1.5h1.5c0,0,0.4-0.55,0.4-1.5c0-1-1-2.85-1-3.62c0-0.41,0.06-0.83,0.4-1.38H8.15z M21.47,6.5c0,0,0.13-1.06,0.13-1.5c0-1.65-1.35-3-3-3c-1.54,0-2.81,1.16-2.98,2.65L14.53,15l-11.6,0c-0.02,3.87,3.09,7,6.82,7 c3.48,0,6.34-2.73,6.71-6.23l1.15-10.87C17.66,4.39,18.08,4,18.6,4c0.55,0,1,0.45,1,1c0,0.3-0.1,1.25-0.1,1.25L21.47,6.5z"/></svg>
